docs/.vuepress/public/svg/termius-logo.svg

<?xml version="1.0" encoding="UTF-8" standalone="no"?>
<!DOCTYPE svg PUBLIC "-//W3C//DTD SVG 1.1//EN" "http://www.w3.org/Graphics/SVG/1.1/DTD/svg11.dtd">
<svg width="100%" height="100%" viewBox="0 0 362 96" version="1.1" xmlns="http://www.w3.org/2000/svg"
    xmlns:xlink="http://www.w3.org/1999/xlink" xml:space="preserve" xmlns:serif="http://www.serif.com/"
    style="fill-rule:evenodd;clip-rule:evenodd;">
    <rect x="0" y="0" width="362" height="96" style="fill:#fff;" />
    <g>
        <clipPath id="_clip1">
            <rect x="0.5" y="0" width="361" height="96" />
        </clipPath>
        <g clip-path="url(#_clip1)">
            <path
                d="M148.426,25.971l-8.734,-0l0,4.11c0,2.954 -1.605,5.202 -4.945,5.202l-1.605,-0l-0,8.541l5.651,0l-0,13.679c-0,6.358 4.046,10.275 10.661,10.275c3.082,0 4.688,-0.706 5.073,-0.899l-0,-8.091c-0.578,0.128 -1.541,0.321 -2.569,0.321c-2.119,-0 -3.532,-0.707 -3.532,-3.34l-0,-11.945l6.23,0l-0,-8.541l-6.23,-0l-0,-9.312Zm20.23,21.45l12.78,-0c-0.129,-2.441 -1.799,-5.395 -6.422,-5.395c-4.111,0 -6.166,3.018 -6.358,5.395Zm13.486,8.284l8.156,2.312c-1.541,5.523 -6.615,10.147 -14.706,10.147c-8.799,-0 -16.634,-6.294 -16.634,-17.019c-0,-10.275 7.643,-16.825 15.927,-16.825c9.89,-0 15.991,6.101 15.991,16.376c-0,1.349 -0.128,2.826 -0.193,3.018l-22.22,0c0.193,3.597 3.468,6.165 7.257,6.165c3.532,0 5.523,-1.669 6.422,-4.174Zm35.321,-20.422c-0.642,-0.193 -1.605,-0.321 -2.568,-0.321c-2.569,-0 -6.615,1.027 -8.285,4.624l0,-4.303l-9.44,-0l-0,31.918l9.761,-0l0,-13.936c0,-6.358 3.532,-8.67 7.45,-8.67c0.963,-0 1.991,0.064 3.082,0.321l0,-9.633Zm15.349,31.918l0,-18.368c0,-2.889 1.863,-5.522 5.266,-5.522c3.532,-0 5.138,2.376 5.138,5.394l0,18.496l9.633,-0l0,-18.432c0,-2.825 1.862,-5.458 5.33,-5.458c3.468,-0 5.074,2.376 5.074,5.394l0,18.496l9.44,-0l0,-20.679c0,-8.67 -5.78,-12.202 -11.816,-12.202c-4.303,-0 -7.386,1.412 -9.89,5.009c-1.606,-3.147 -4.881,-5.009 -9.441,-5.009c-3.468,-0 -7.578,1.798 -9.183,4.623l-0,-3.66l-9.312,-0l-0,31.918l9.761,-0Zm57.863,-0l0,-31.918l-9.761,-0l0,31.918l9.761,-0Zm-10.596,-41.68c0,3.147 2.568,5.716 5.651,5.716c3.211,0 5.78,-2.569 5.78,-5.716c0,-3.146 -2.569,-5.715 -5.78,-5.715c-3.083,-0 -5.651,2.569 -5.651,5.715Zm39.752,41.68l9.376,-0c-0.064,-0.514 -0.321,-2.826 -0.321,-5.716l0,-26.202l-9.761,-0l0,18.174c0,3.211 -2.055,5.459 -5.33,5.459c-3.468,0 -5.138,-2.44 -5.138,-5.523l0,-18.11l-9.762,-0l0,20.165c0,6.808 4.367,12.459 12.138,12.459c3.211,0 6.872,-1.156 8.541,-3.917c0,0.834 0.129,2.633 0.257,3.211Zm15.028,-9.056c0.257,3.533 3.468,10.019 13.486,10.019c8.542,-0 12.716,-5.33 12.716,-10.789c0,-4.688 -3.211,-8.67 -9.826,-10.019l-4.238,-0.834c-1.413,-0.257 -2.505,-1.028 -2.505,-2.377c0,-1.669 1.606,-2.761 3.468,-2.761c2.954,-0 4.303,1.798 4.56,3.917l8.091,-1.477c-0.321,-3.725 -3.532,-9.504 -12.779,-9.504c-7.129,-0 -12.267,4.752 -12.267,10.596c0,4.495 2.698,8.349 9.505,9.826l3.661,0.835c2.376,0.513 3.146,1.477 3.146,2.633c0,1.413 -1.22,2.761 -3.724,2.761c-3.34,0 -4.881,-2.119 -5.01,-4.303l-8.284,1.477Z"
                style="fill:#141729;" />
            <path
                d="M83.147,81.851c-0.382,-0 -0.765,-0.008 -1.148,-0.024c-5.406,8.209 -14.571,13.203 -24.511,13.203l-0,-7.486c8.03,-0 15.372,-4.367 19.216,-11.428l1.224,-2.249l2.54,0.326c0.888,0.114 1.79,0.172 2.679,0.172c11.51,-0 20.881,-9.371 20.881,-20.882c-0,-6.173 -2.864,-12.219 -7.651,-16.154l-1.477,-1.213l0.117,-1.907c0.024,-0.396 0.037,-0.798 0.037,-1.197c-0,-11.046 -8.994,-20.04 -20.04,-20.04c-3.979,0 -7.812,1.162 -11.119,3.369l-2.786,1.86l-2.157,-2.565c-3.828,-4.553 -9.399,-7.15 -15.345,-7.15c-11.046,-0 -20.039,8.993 -20.039,20.04c0,0.308 0.007,0.62 0.022,0.929l0.119,2.543l-2.321,1.045c-7.544,3.398 -12.402,10.907 -12.402,19.178c-0,11.589 9.433,21.022 21.021,21.022c1.232,0 2.467,-0.107 3.672,-0.319l2.811,-0.495l1.221,2.579c3.61,7.624 11.357,12.536 19.777,12.536l-0,7.486c-10.393,-0 -19.996,-5.552 -25.249,-14.387c-0.742,0.057 -1.487,0.086 -2.232,0.086c-15.722,0 -28.507,-12.785 -28.507,-28.508c-0,-10.388 5.648,-19.887 14.608,-24.893c0.629,-14.627 12.72,-26.328 27.499,-26.328c7.085,0 13.802,2.697 18.885,7.498c3.863,-1.978 8.135,-3.012 12.522,-3.012c15.105,0 27.403,12.223 27.525,27.3c5.661,5.33 8.975,12.908 8.975,20.697c-0,15.645 -12.722,28.368 -28.367,28.368Zm-11.44,-24.255c-2.542,0.972 -5.045,1.465 -7.452,1.465c-2.416,-0 -4.799,-0.495 -7.077,-1.469c-0.092,-0.039 -0.092,-0.039 -0.184,-0.078c-0.839,-0.361 -1.198,-0.796 -1.198,-1.75l-0,-1.274c-0,-1.121 0.645,-1.842 1.697,-1.842l0.236,0.032l0.063,0.024c2.083,0.822 4.256,1.238 6.459,1.238c2.211,0 4.527,-0.419 6.882,-1.248l0.211,-0.046l0.059,-0c1.053,-0 1.699,0.721 1.699,1.842l-0,1.274c-0,1.014 -0.349,1.382 -1.321,1.8l-0.074,0.032Zm-31.211,-12.218c-0.714,0.15 -1.247,0.716 -1.247,1.743l-0,2.136c-0,0.807 0.495,1.362 1.266,1.362c0.181,-0 0.366,-0.03 0.574,-0.092l12.307,-3.981c0.934,-0.311 1.447,-1.061 1.447,-2.087l-0,-1.775c-0,-1.027 -0.513,-1.776 -1.446,-2.087l-12.281,-3.973c-0.218,-0.082 -0.436,-0.128 -0.647,-0.128c-0.651,0 -1.22,0.409 -1.22,1.357l-0,2.169c-0,0.988 0.516,1.552 1.231,1.739l6.897,1.811l-6.881,1.806Z"
                style="fill:#141729;fill-rule:nonzero;" />
            <path
                d="M57.488,95.03c9.94,-0 19.105,-4.995 24.511,-13.203c0.383,0.016 0.766,0.024 1.148,0.024c15.645,-0 28.367,-12.723 28.367,-28.368c0,-7.789 -3.314,-15.367 -8.975,-20.697c-0.122,-15.077 -12.42,-27.3 -27.525,-27.3c-4.387,0 -8.658,1.034 -12.522,3.012c-5.083,-4.801 -11.8,-7.498 -18.885,-7.498c-14.779,-0 -26.87,11.701 -27.499,26.328c-8.96,5.006 -14.608,14.505 -14.608,24.893c0,15.723 12.785,28.508 28.507,28.508c0.745,0 1.49,-0.029 2.232,-0.087c5.253,8.836 14.856,14.388 25.249,14.388Zm-0,-0l-0,-7.486m-0,-0c8.03,-0 15.372,-4.367 19.216,-11.428l1.224,-2.249l2.54,0.326c0.888,0.114 1.79,0.172 2.679,0.172c11.51,-0 20.881,-9.371 20.881,-20.882c-0,-6.173 -2.864,-12.219 -7.651,-16.154l-1.477,-1.213l0.117,-1.907c0.024,-0.396 0.037,-0.798 0.037,-1.197c-0,-11.046 -8.994,-20.04 -20.04,-20.04c-3.979,0 -7.812,1.162 -11.119,3.369l-2.786,1.86l-2.157,-2.565c-3.828,-4.553 -9.399,-7.15 -15.345,-7.15c-11.046,-0 -20.039,8.993 -20.039,20.04c0,0.308 0.007,0.62 0.022,0.929l0.119,2.543l-2.321,1.045c-7.544,3.398 -12.402,10.907 -12.402,19.178c-0,11.589 9.433,21.022 21.021,21.022c1.232,0 2.467,-0.107 3.672,-0.319l2.811,-0.495l1.221,2.579c3.61,7.624 11.357,12.536 19.777,12.536Zm14.219,-29.948c-2.542,0.973 -5.045,1.465 -7.452,1.465c-2.416,0 -4.799,-0.495 -7.077,-1.469c-0.092,-0.038 -0.092,-0.038 -0.184,-0.078c-0.839,-0.361 -1.198,-0.796 -1.198,-1.75l-0,-1.274c-0,-1.121 0.645,-1.842 1.697,-1.842l0.236,0.032l0.063,0.024c2.083,0.822 4.256,1.238 6.459,1.238c2.211,0 4.527,-0.419 6.882,-1.248l0.211,-0.046l0.059,-0c1.053,-0 1.699,0.721 1.699,1.842l-0,1.274c-0,1.014 -0.349,1.382 -1.321,1.801l-0.074,0.031Zm-31.211,-12.218c-0.714,0.15 -1.247,0.716 -1.247,1.743l-0,2.137c-0,0.807 0.495,1.361 1.266,1.361c0.181,-0 0.366,-0.03 0.574,-0.092l12.307,-3.981c0.934,-0.311 1.447,-1.061 1.447,-2.087l-0,-1.775c-0,-1.026 -0.513,-1.776 -1.446,-2.087l-12.281,-3.973c-0.218,-0.082 -0.436,-0.128 -0.647,-0.128c-0.651,0 -1.22,0.409 -1.22,1.357l-0,2.169c-0,0.988 0.516,1.552 1.231,1.739l6.897,1.811l-6.881,1.806Z"
                style="fill:none;fill-rule:nonzero;stroke:#141729;stroke-width:0.5px;" />
        </g>
    </g>
</svg>

<svg width="362.000000" height="96.000000" viewBox="0 0 362 96" fill="none" xmlns="http://www.w3.org/2000/svg">
	<desc>
			Created with Pixso.
	</desc>
	<defs>
		<clipPath id="clip2_11">
			<rect id="termius-logo" width="362.000000" height="96.000000" fill="white" fill-opacity="0"/>
		</clipPath>
	</defs>
	<g clip-path="url(#clip2_11)">
		<mask id="mask2_15" mask-type="alpha" maskUnits="userSpaceOnUse" x="0.500000" y="0.000000" width="361.000000" height="96.000000">
			<rect id="rect" x="0.500000" width="361.000000" height="96.000000" fill="#000000" fill-opacity="1.000000"/>
		</mask>
		<g mask="url(#mask2_15)">
			<path id="path" d="M148.42 25.97L139.69 25.97L139.69 30.08C139.69 33.03 138.08 35.28 134.74 35.28L133.14 35.28L133.14 43.82L138.79 43.82L138.79 57.5C138.79 63.86 142.83 67.77 149.45 67.77C152.53 67.77 154.14 67.07 154.52 66.87L154.52 58.78C153.94 58.91 152.98 59.1 151.95 59.1C149.83 59.1 148.42 58.4 148.42 55.76L148.42 43.82L154.65 43.82L154.65 35.28L148.42 35.28L148.42 25.97ZM168.65 47.42L181.43 47.42C181.3 44.98 179.63 42.02 175.01 42.02C170.9 42.02 168.84 45.04 168.65 47.42ZM182.14 55.7L190.29 58.01C188.75 63.54 183.68 68.16 175.59 68.16C166.79 68.16 158.95 61.87 158.95 51.14C158.95 40.87 166.6 34.32 174.88 34.32C184.77 34.32 190.87 40.42 190.87 50.69C190.87 52.04 190.74 53.52 190.68 53.71L168.46 53.71C168.65 57.31 171.93 59.87 175.72 59.87C179.25 59.87 181.24 58.21 182.14 55.7ZM217.46 35.28C216.82 35.09 215.85 34.96 214.89 34.96C212.32 34.96 208.28 35.98 206.61 39.58L206.61 35.28L197.17 35.28L197.17 67.2L206.93 67.2L206.93 53.26C206.93 46.9 210.46 44.59 214.38 44.59C215.34 44.59 216.37 44.65 217.46 44.91L217.46 35.28ZM232.81 67.2L232.81 48.83C232.81 45.94 234.67 43.31 238.07 43.31C241.61 43.31 243.21 45.68 243.21 48.7L243.21 67.2L252.84 67.2L252.84 48.76C252.84 45.94 254.71 43.31 258.17 43.31C261.64 43.31 263.25 45.68 263.25 48.7L263.25 67.2L272.69 67.2L272.69 46.52C272.69 37.85 266.91 34.32 260.87 34.32C256.57 34.32 253.49 35.73 250.98 39.32C249.38 36.18 246.1 34.32 241.54 34.32C238.07 34.32 233.96 36.11 232.36 38.94L232.36 35.28L223.05 35.28L223.05 67.2L232.81 67.2ZM290.67 67.2L290.67 35.28L280.91 35.28L280.91 67.2L290.67 67.2ZM280.07 25.52C280.07 28.66 282.64 31.23 285.73 31.23C288.94 31.23 291.51 28.66 291.51 25.52C291.51 22.37 288.94 19.8 285.73 19.8C282.64 19.8 280.07 22.37 280.07 25.52ZM319.83 67.2L329.2 67.2C329.14 66.68 328.88 64.37 328.88 61.48L328.88 35.28L319.12 35.28L319.12 53.45C319.12 56.66 317.07 58.91 313.79 58.91C310.32 58.91 308.65 56.47 308.65 53.39L308.65 35.28L298.89 35.28L298.89 55.44C298.89 62.25 303.26 67.9 311.03 67.9C314.24 67.9 317.9 66.75 319.57 63.99C319.57 64.82 319.7 66.62 319.83 67.2ZM334.85 58.14C335.11 61.67 338.32 68.16 348.34 68.16C356.88 68.16 361.06 62.83 361.06 57.37C361.06 52.68 357.85 48.7 351.23 47.35L346.99 46.52C345.58 46.26 344.49 45.49 344.49 44.14C344.49 42.47 346.09 41.38 347.96 41.38C350.91 41.38 352.26 43.18 352.52 45.3L360.61 43.82C360.29 40.09 357.07 34.32 347.83 34.32C340.7 34.32 335.56 39.07 335.56 44.91C335.56 49.41 338.26 53.26 345.07 54.74L348.73 55.57C351.1 56.09 351.87 57.05 351.87 58.21C351.87 59.62 350.65 60.97 348.15 60.97C344.81 60.97 343.27 58.85 343.14 56.66L334.85 58.14Z" fill="#4D547B" fill-opacity="1.000000" fill-rule="evenodd"/>
			<path id="path" d="M83.14 81.85C82.76 81.85 82.38 81.84 81.99 81.82C76.59 90.03 67.42 95.03 57.48 95.03L57.48 87.54C65.51 87.54 72.86 83.17 76.7 76.11L77.92 73.86L80.46 74.19C81.35 74.3 82.25 74.36 83.14 74.36C94.65 74.36 104.02 64.99 104.02 53.48C104.02 47.31 101.16 41.26 96.37 37.32L94.9 36.11L95.01 34.2C95.04 33.81 95.05 33.41 95.05 33.01C95.05 21.96 86.06 12.97 75.01 12.97C71.03 12.97 67.2 14.13 63.89 16.34L61.1 18.2L58.95 15.63C55.12 11.08 49.55 8.48 43.6 8.48C32.56 8.48 23.56 17.47 23.56 28.52C23.56 28.83 23.57 29.14 23.59 29.45L23.7 31.99L21.38 33.04C13.84 36.44 8.98 43.95 8.98 52.22C8.98 63.81 18.41 73.24 30 73.24C31.23 73.24 32.47 73.13 33.67 72.92L36.49 72.42L37.71 75C41.32 82.63 49.06 87.54 57.48 87.54L57.48 95.03C47.09 95.03 37.49 89.47 32.23 80.64C31.49 80.69 30.75 80.72 30 80.72C14.28 80.72 1.5 67.94 1.5 52.22C1.5 41.83 7.14 32.33 16.1 27.32C16.73 12.7 28.82 0.99 43.6 0.99C50.69 0.99 57.4 3.69 62.49 8.49C66.35 6.51 70.62 5.48 75.01 5.48C90.11 5.48 102.41 17.7 102.53 32.78C108.2 38.11 111.51 45.69 111.51 53.48C111.51 69.12 98.79 81.85 83.14 81.85ZM71.7 57.59C69.16 58.56 66.66 59.06 64.25 59.06C61.83 59.06 59.45 58.56 57.17 57.59C57.08 57.55 57.08 57.55 56.99 57.51C56.15 57.15 55.79 56.71 55.79 55.76L55.79 54.49C55.79 53.36 56.44 52.64 57.49 52.64L57.72 52.68C59.81 53.5 62.04 53.94 64.25 53.94C66.46 53.94 68.77 53.52 71.13 52.69L71.34 52.64C72.39 52.64 73.1 53.36 73.1 54.49L73.1 55.76C73.1 56.77 72.67 57.17 71.7 57.59ZM40.49 45.37C39.78 45.52 39.24 46.09 39.24 47.12L39.24 49.25C39.24 50.06 39.74 50.61 40.51 50.61C40.69 50.61 40.88 50.58 41.08 50.52L53.39 46.54C54.33 46.23 54.84 45.48 54.84 44.45L54.84 42.68C54.84 41.65 54.33 40.9 53.39 40.59L41.11 36.62C40.89 36.54 40.68 36.49 40.46 36.49C39.81 36.49 39.24 36.9 39.24 37.85L39.24 40.02C39.24 41.01 39.76 41.57 40.48 41.76L47.37 43.57L40.49 45.37Z" fill="#4D547B" fill-opacity="1.000000" fill-rule="nonzero"/>
			<path id="path" d="M57.48 95.03C67.42 95.03 76.59 90.03 81.99 81.82C82.38 81.84 82.76 81.85 83.14 81.85C98.79 81.85 111.51 69.12 111.51 53.48C111.51 45.69 108.2 38.11 102.53 32.78C102.41 17.7 90.11 5.48 75.01 5.48C70.62 5.48 66.35 6.52 62.49 8.49C57.4 3.69 50.69 1 43.6 1C28.82 1 16.73 12.7 16.1 27.32C7.14 32.33 1.5 41.83 1.5 52.22C1.5 67.94 14.28 80.72 30 80.72C30.75 80.72 31.49 80.69 32.23 80.64C37.49 89.47 47.09 95.03 57.48 95.03ZM57.48 87.54C65.51 87.54 72.86 83.17 76.7 76.11L77.92 73.86L80.46 74.19C81.35 74.3 82.25 74.36 83.14 74.36C94.65 74.36 104.02 64.99 104.02 53.48C104.02 47.31 101.16 41.26 96.37 37.32L94.9 36.11L95.01 34.2C95.04 33.81 95.05 33.41 95.05 33.01C95.05 21.96 86.06 12.97 75.01 12.97C71.03 12.97 67.2 14.13 63.89 16.34L61.1 18.2L58.95 15.63C55.12 11.08 49.55 8.48 43.6 8.48C32.56 8.48 23.56 17.47 23.56 28.52C23.56 28.83 23.57 29.14 23.59 29.45L23.7 31.99L21.38 33.04C13.84 36.44 8.98 43.95 8.98 52.22C8.98 63.81 18.41 73.24 30 73.24C31.23 73.24 32.47 73.13 33.67 72.92L36.49 72.42L37.71 75C41.32 82.63 49.06 87.54 57.48 87.54ZM71.7 57.59C69.16 58.56 66.66 59.06 64.25 59.06C61.83 59.06 59.45 58.56 57.17 57.59C57.08 57.55 57.08 57.55 56.99 57.51C56.15 57.15 55.79 56.71 55.79 55.76L55.79 54.49C55.79 53.36 56.44 52.64 57.49 52.64L57.72 52.68C59.81 53.5 62.04 53.94 64.25 53.94C66.46 53.94 68.77 53.52 71.13 52.69L71.34 52.64C72.39 52.64 73.1 53.36 73.1 54.49L73.1 55.76C73.1 56.77 72.67 57.17 71.7 57.59ZM40.49 45.37C39.78 45.52 39.24 46.09 39.24 47.12L39.24 49.25C39.24 50.06 39.74 50.61 40.51 50.61C40.69 50.61 40.88 50.58 41.08 50.52L53.39 46.54C54.33 46.23 54.84 45.48 54.84 44.45L54.84 42.68C54.84 41.65 54.33 40.9 53.39 40.59L41.11 36.62C40.89 36.54 40.68 36.49 40.46 36.49C39.81 36.49 39.24 36.9 39.24 37.85L39.24 40.02C39.24 41.01 39.76 41.57 40.48 41.76L47.37 43.57L40.49 45.37Z" fill="#000000" fill-opacity="0" fill-rule="nonzero"/>
			<path id="path" d="M81.99 81.82C82.38 81.84 82.76 81.85 83.14 81.85C98.79 81.85 111.51 69.12 111.51 53.48C111.51 45.69 108.2 38.11 102.53 32.78C102.41 17.7 90.11 5.48 75.01 5.48C70.62 5.48 66.35 6.52 62.49 8.49C57.4 3.69 50.69 1 43.6 1C28.82 1 16.73 12.7 16.1 27.32C7.14 32.33 1.5 41.83 1.5 52.22C1.5 67.94 14.28 80.72 30 80.72C30.75 80.72 31.49 80.69 32.23 80.64C37.49 89.47 47.09 95.03 57.48 95.03C67.42 95.03 76.59 90.03 81.99 81.82ZM57.48 95.03L57.48 87.54M76.7 76.11L77.92 73.86L80.46 74.19C81.35 74.3 82.25 74.36 83.14 74.36C94.65 74.36 104.02 64.99 104.02 53.48C104.02 47.31 101.16 41.26 96.37 37.32L94.9 36.11L95.01 34.2C95.04 33.81 95.05 33.41 95.05 33.01C95.05 21.96 86.06 12.97 75.01 12.97C71.03 12.97 67.2 14.13 63.89 16.34L61.1 18.2L58.95 15.63C55.12 11.08 49.55 8.48 43.6 8.48C32.56 8.48 23.56 17.47 23.56 28.52C23.56 28.83 23.57 29.14 23.59 29.45L23.7 31.99L21.38 33.04C13.84 36.44 8.98 43.95 8.98 52.22C8.98 63.81 18.41 73.24 30 73.24C31.23 73.24 32.47 73.13 33.67 72.92L36.49 72.42L37.71 75C41.32 82.63 49.06 87.54 57.48 87.54C65.51 87.54 72.86 83.17 76.7 76.11ZM64.25 59.06C61.83 59.06 59.45 58.56 57.17 57.59C57.08 57.55 57.08 57.55 56.99 57.51C56.15 57.15 55.79 56.71 55.79 55.76L55.79 54.49C55.79 53.36 56.44 52.64 57.49 52.64L57.72 52.68C59.81 53.5 62.04 53.94 64.25 53.94C66.46 53.94 68.77 53.52 71.13 52.69L71.34 52.64C72.39 52.64 73.1 53.36 73.1 54.49L73.1 55.76C73.1 56.77 72.67 57.17 71.7 57.59C69.16 58.56 66.66 59.06 64.25 59.06ZM39.24 47.12L39.24 49.25C39.24 50.06 39.74 50.61 40.51 50.61C40.69 50.61 40.88 50.58 41.08 50.52L53.39 46.54C54.33 46.23 54.84 45.48 54.84 44.45L54.84 42.68C54.84 41.65 54.33 40.9 53.39 40.59L41.11 36.62C40.89 36.54 40.68 36.49 40.46 36.49C39.81 36.49 39.24 36.9 39.24 37.85L39.24 40.02C39.24 41.01 39.76 41.57 40.48 41.76L47.37 43.57L40.49 45.37C39.78 45.52 39.24 46.09 39.24 47.12Z" stroke="#4D547B" stroke-opacity="1.000000" stroke-width="0.500000"/>
		</g>
	</g>
</svg>
